src/images/icons/icon-dopprod-2-active.svg

<svg width="58" height="39" viewBox="0 0 58 39" fill="none" xmlns="http://www.w3.org/2000/svg">
<path d="M53.3 38.2H4.4C2 38.2 0 36.1 0 33.6V4.6C0 2 2 0 4.4 0H53.3C55.7 0 57.7 2.1 57.7 4.6V33.5C57.7 36.1 55.8 38.2 53.3 38.2ZM4.4 1.5C2.8 1.5 1.5 2.9 1.5 4.6V33.5C1.5 35.2 2.8 36.6 4.4 36.6H53.3C54.9 36.6 56.2 35.2 56.2 33.5V4.6C56.2 2.9 54.9 1.5 53.3 1.5H4.4Z" fill="#003067"/>
<path d="M18.7 17.3999H16.3H13.9L12.8 18.5999L13.9 19.6999H16.3H18.7L19.8 18.5999L18.7 17.3999Z" fill="#003067"/>
<path d="M18.7 25.7H16.3H13.9L12.8 26.9L13.9 28H16.3H18.7L19.8 26.9L18.7 25.7Z" fill="#003067"/>
<path d="M18.7 9.69995H16.3H13.9L12.8 10.9L13.9 12.1H16.3H18.7L19.8 10.9L18.7 9.69995Z" fill="#003067"/>
<path d="M19.4001 12.2V14.7V17.3L20.5001 18.5L21.6001 17.3V14.7V12.2L20.5001 11L19.4001 12.2Z" fill="#003067"/>
<path d="M19.4001 20.5V23.1V25.6L20.5001 26.8L21.6001 25.6V23.1V20.5L20.5001 19.3L19.4001 20.5Z" fill="#003067"/>
<path d="M42.0001 9.69995H39.6001H37.2001L36.1001 10.9L37.2001 12.1H39.6001H42.0001L43.1001 10.9L42.0001 9.69995Z" fill="#003067"/>
<path d="M42.7 12.2V14.7V17.3L43.7999 18.5L44.9 17.3V14.7V12.2L43.7999 11L42.7 12.2Z" fill="#003067"/>
<path d="M42.7 20.5V23.1V25.6L43.7999 26.8L44.9 25.6V23.1V20.5L43.7999 19.3L42.7 20.5Z" fill="#003067"/>
<path d="M22.4001 20.5V23.1V25.6L23.5001 26.8L24.6001 25.6V23.1V20.5L23.5001 19.3L22.4001 20.5Z" fill="#003067"/>
<path d="M29.9 17.3999H27.5H25.1L24 18.5999L25.1 19.6999H27.5H29.9L31 18.5999L29.9 17.3999Z" fill="#003067"/>
<path d="M29.9 25.7H27.5H25.1L24 26.9L25.1 28H27.5H29.9L31 26.9L29.9 25.7Z" fill="#003067"/>
<path d="M29.9 9.69995H27.5H25.1L24 10.9L25.1 12.1H27.5H29.9L31 10.9L29.9 9.69995Z" fill="#003067"/>
<path d="M22.4001 12.2V14.7V17.3L23.5001 18.5L24.6001 17.3V14.7V12.1L23.5001 11L22.4001 12.2Z" fill="#003067"/>
<path d="M30.6001 20.5V23.1V25.6L31.7001 26.8L32.8001 25.6V23.1V20.5L31.7001 19.3L30.6001 20.5Z" fill="#003067"/>
<path d="M36.0001 26.5H34.1001V28.5H36.0001V26.5Z" fill="#003067"/>
</svg>

<svg xmlns="http://www.w3.org/2000/svg" width="58" height="39" fill="none" viewBox="0 0 58 39">
	<path fill="#003067" d="M53.3 38.2H4.4C2 38.2 0 36.1 0 33.6v-29C0 2 2 0 4.4 0h48.9c2.4 0 4.4 2.1 4.4 4.6v28.9c0 2.6-1.9 4.7-4.4 4.7zM4.4 1.5c-1.6 0-2.9 1.4-2.9 3.1v28.9c0 1.7 1.3 3.1 2.9 3.1h48.9c1.6 0 2.9-1.4 2.9-3.1V4.6c0-1.7-1.3-3.1-2.9-3.1H4.4z"/>
	<path fill="#003067" d="M18.7 17.4h-4.8l-1.1 1.2 1.1 1.1h4.8l1.1-1.1-1.1-1.2zM18.7 25.7h-4.8l-1.1 1.2 1.1 1.1h4.8l1.1-1.1-1.1-1.2zM18.7 9.7h-4.8l-1.1 1.2 1.1 1.2h4.8l1.1-1.2-1.1-1.2zM19.4 12.2v5.1l1.1 1.2 1.1-1.2v-5.1L20.5 11l-1.1 1.2zM19.4 20.5v5.1l1.1 1.2 1.1-1.2v-5.1l-1.1-1.2-1.1 1.2zM42 9.7h-4.8l-1.1 1.2 1.1 1.2H42l1.1-1.2L42 9.7zM42.7 12.2v5.1l1.1 1.2 1.1-1.2v-5.1L43.8 11l-1.1 1.2zM42.7 20.5v5.1l1.1 1.2 1.1-1.2v-5.1l-1.1-1.2-1.1 1.2zM22.4 20.5v5.1l1.1 1.2 1.1-1.2v-5.1l-1.1-1.2-1.1 1.2zM29.9 17.4h-4.8L24 18.6l1.1 1.1h4.8l1.1-1.1-1.1-1.2zM29.9 25.7h-4.8L24 26.9l1.1 1.1h4.8l1.1-1.1-1.1-1.2zM29.9 9.7h-4.8L24 10.9l1.1 1.2h4.8l1.1-1.2-1.1-1.2zM22.4 12.2v5.1l1.1 1.2 1.1-1.2v-5.2L23.5 11l-1.1 1.2zM30.6 20.5v5.1l1.1 1.2 1.1-1.2v-5.1l-1.1-1.2-1.1 1.2zM36 26.5h-1.9v2H36v-2z"/>
</svg>
